X:79
T:Cheat Mountain
C:Traditional
N:Transcribed by Mike Stangeland
R:bluegrass
L:1/8
Q:1/4=220
M:4/4
K:C
gf |: "C"e2 g2 a2 gf | ec ze c2 BA | "G"GB dB GB dB | "C"ec zc c2 gf | 
|e2 g2 a2 gf | ec ze c2 BA | "G"GB dB GB df |1 e"C"c zc c2 gf :|2 e"C"c zc c2 CD |]
|: "C"E2 GE GE GG | CE GE AE G2 | "F"F2 GF AF AF | CF GA _BA GF |
| "C"E2 GE GE GG | CE GE A2 G2 | EC E"G"C FE D2 | |1 "C"C4 C2 CD :|2 "C"C4 C4 |] 


